img/icons/action/filter.svg

<svg fill="none" viewBox="0 0 16 16" xmlns="http://www.w3.org/2000/svg"><path d="m2.43 1c-0.799 0-1.28 0.89-0.832 1.55l4.4 6.6v4.85c0 0.189 0.107 0.362 0.276 0.447l3 1.5c0.155 0.0775 0.339 0.0692 0.486-0.0219 0.147-0.0911 0.237-0.252 0.237-0.425v-6.35l4.4-6.6c0.443-0.665-0.0333-1.55-0.832-1.55h-11.1zm0 1h11.1l-4.48 6.72c-0.0548 0.0821-0.084 0.179-0.084 0.277v5.69l-2-1v-4.69c0-0.0987-0.0292-0.195-0.084-0.277l-4.48-6.72z" clip-rule="evenodd" fill="#000" fill-rule="evenodd"/></svg>

<svg xmlns="http://www.w3.org/2000/svg" viewBox="0 0 16 16" fill="none">
  <path fill="#000" fill-rule="evenodd"
    d="M2.434 1a1 1 0 0 0-.832 1.555L6 9.15V14a.5.5 0 0 0 .276.447l3 1.5A.5.5 0 0 0 10 15.5V9.151l4.398-6.596A1 1 0 0 0 13.566 1H2.434Zm0 1h11.132L9.084 8.723A.5.5 0 0 0 9 9v5.691l-2-1V9a.5.5 0 0 0-.084-.277L2.434 2Z"
    clip-rule="evenodd" />
</svg>
